X: 693
T: John Brown's March
B: jims roots
M:4/4
L:1/8
R: reel
Q: 1/4=100
K:Gmaj
V:1 
DE |:"G" G2 [G4G,] GABe | d2B2 BAGB | A4 B2BA | "Em"G2GE EDDE |
"G"G2 [G4G,] GABe | d2B2 BAGB | "D"A4 B2BA |[1 "G"G3G GEDE :|[2 "G"G3 GG2 ef ||
|: "C"g2gf e2d2 | e2f2 g3e |"G"d2B2 BAGB | A2d^c defa |
"C"g2gf e2d2 | e2f2 g3e | "G"d2B2 AcBA |[1 G2GF GABd :|[2 G3G GEDE ||
% abcbook-tune_id 6298c25d37aa7a15cfc7a4bc


% abcbook-boost 0
% abcbook-tablature 
% abcbook-transpose 
% abcbook-lastupdated 1654178399246
% abcbook-soundfonts 
% abcbook-repeats 1
% bdh
% <a href="http://thesession.org/tunes/17230#setting33020" rel="nofollow">http://thesession.org/tunes/17230#setting33020</a>

